TH1/hbar.svg

<svg xmlns="http://www.w3.org/2000/svg" viewBox="0 0 1200 800" preserveAspectRatio="none" width="1200" height="800">
 <path d="M0,0H1200V800H0Z" style="fill: #deba87;"></path>
 <g>
  <svg viewBox="0 0 1176 384" preserveAspectRatio="none" x="12" y="8" width="1176" height="384">
   <path d="M0,0H1176V384H0Z" style="fill: #deba87;"></path>
   <g>
    <g transform="translate(118,38)">
     <path d="M0,0H941V307H0Z" style="fill: #adbdc7; stroke: black; stroke-width: 1;"></path>
     <g>
      <path d="M0,307h941M0,287h941M0,266h941M0,246h941M0,225h941M0,205h941M0,184h941M0,164h941M0,143h941M0,123h941M0,102h941M0,82h941M0,61h941M0,41h941M0,20h941M0,0h941" style="stroke: black; stroke-width: 1; stroke-dasharray: 1,2;"></path>
      <path d="M35,0v307M85,0v307M120,0v307M148,0v307M170,0v307M189,0v307M206,0v307M220,0v307M233,0v307M318,0v307M368,0v307M403,0v307M431,0v307M453,0v307M472,0v307M488,0v307M503,0v307M516,0v307M601,0v307M651,0v307M686,0v307M714,0v307M736,0v307M755,0v307M771,0v307M786,0v307M799,0v307M884,0v307M934,0v307" style="stroke: black; stroke-width: 1; stroke-dasharray: 1,2;"></path>
     </g>
     <svg x="0" y="0" overflow="hidden" width="941" height="307" viewBox="0 0 941 307">
      <g>
       <path d="M0,307h628v-20h-628zM0,287h705v-21h-705zM0,266h863v-20h-863zM0,246h620v-21h-620zM0,225h491v-20h-491zM0,205h659v-21h-659zM0,184h426v-20h-426zM0,164h528v-21h-528zM0,143h318v-20h-318zM0,123h403v-21h-403zM0,102h372v-20h-372zM0,82h406v-21h-406zM0,61h265v-20h-265zM0,41h298v-21h-298zM0,20h85v-20h-85z" style="fill: #bf8278;"></path>
       <path d="M0,307h628v-4h-628zM0,287h705v-4h-705zM0,266h863v-4h-863zM0,246h620v-4h-620zM0,225h491v-4h-491zM0,205h659v-4h-659zM0,184h426v-4h-426zM0,164h528v-4h-528zM0,143h318v-4h-318zM0,123h403v-4h-403zM0,102h372v-4h-372zM0,82h406v-4h-406zM0,61h265v-4h-265zM0,41h298v-4h-298zM0,20h85v-4h-85z" style="fill: #e49b8f;"></path>
       <path d="M0,287h628v4h-628zM0,266h705v4h-705zM0,246h863v4h-863zM0,225h620v4h-620zM0,205h491v4h-491zM0,184h659v4h-659zM0,164h426v4h-426zM0,143h528v4h-528zM0,123h318v4h-318zM0,102h403v4h-403zM0,82h372v4h-372zM0,61h406v4h-406zM0,41h265v4h-265zM0,20h298v4h-298zM0,0h85v4h-85z" style="fill: #a06d64;"></path>
      </g>
     </svg>
     <g>
      <g transform="translate(0,307)">
       <path d="M0,0h941M35,-6v6m50,-6v6m35,-6v6m28,-6v6m22,-6v6m19,-6v6m17,-6v6m14,-6v6m13,-12v12m85,-6v6m50,-6v6m35,-6v6m28,-6v6m22,-6v6m19,-6v6m16,-6v6m15,-6v6m13,-12v12m85,-6v6m50,-6v6m35,-6v6m28,-6v6m22,-6v6m19,-6v6m16,-6v6m15,-6v6m13,-12v12m85,-6v6m50,-6v6" style="stroke: black; stroke-width: 1;"></path>
       <g font-family="Arial" font-size="13" space="preserve">
        <g transform="translate(224,17)">
         <text fill="black" font-size="13">
          10
         </text>
         <text fill="black" font-size="8" transform="translate(14,-6)">
          1
         </text>
        </g>
        <g transform="translate(507,17)">
         <text fill="black" font-size="13">
          10
         </text>
         <text fill="black" font-size="8" transform="translate(14,-6)">
          2
         </text>
        </g>
        <g transform="translate(790,17)">
         <text fill="black" font-size="13">
          10
         </text>
         <text fill="black" font-size="8" transform="translate(14,-6)">
          3
         </text>
        </g>
       </g>
      </g>
      <g>
       <path d="M0,0v307M35,307h-35m35,-20h-35m35,-21h-35m35,-20h-35m35,-21h-35m35,-20h-35m35,-21h-35m35,-20h-35m35,-21h-35m35,-20h-35m35,-21h-35m35,-20h-35m35,-21h-35m35,-20h-35m35,-21h-35m18,-20h-18" style="stroke: black; stroke-width: 1;"></path>
       <g font-family="Arial" font-size="13" space="preserve" fill="black" text-anchor="end">
        <text dy=".4em" transform="translate(-2,297)">
         DE
        </text>
        <text dy=".4em" transform="translate(-2,277)">
         CH
        </text>
        <text dy=".4em" transform="translate(-2,256)">
         FR
        </text>
        <text dy=".4em" transform="translate(-2,236)">
         IT
        </text>
        <text dy=".4em" transform="translate(-2,215)">
         NL
        </text>
        <text dy=".4em" transform="translate(-2,195)">
         GB
        </text>
        <text dy=".4em" transform="translate(-2,174)">
         AT
        </text>
        <text dy=".4em" transform="translate(-2,154)">
         BE
        </text>
        <text dy=".4em" transform="translate(-2,133)">
         NO
        </text>
        <text dy=".4em" transform="translate(-2,113)">
         ES
        </text>
        <text dy=".4em" transform="translate(-2,92)">
         DK
        </text>
        <text dy=".4em" transform="translate(-2,72)">
         SE
        </text>
        <text dy=".4em" transform="translate(-2,51)">
         GR
        </text>
        <text dy=".4em" transform="translate(-2,31)">
         ZZ
        </text>
        <text dy=".4em" transform="translate(-2,10)">
         PT
        </text>
       </g>
       <g font-family="Arial" font-size="13" space="preserve" transform="translate(-66,0)">
        <text fill="black" text-anchor="end" dy=".4em" transform=" rotate(270)">
         Nation
        </text>
       </g>
      </g>
     </g>
    </g>
    <g transform="translate(917,25)" font-family="Arial" font-size="12" space="preserve" fill="black">
     <path d="M0,0H235V61H0Z" style="fill: white; stroke: black; stroke-width: 1;"></path>
     <text text-anchor="middle" dy=".4em" transform="translate(118,8)">
      htemp
     </text>
     <text text-anchor="start" dy=".4em" transform="translate(12,23)">
      Entries
     </text>
     <text text-anchor="end" dy=".4em" transform="translate(223,23)">
      3354
     </text>
     <text text-anchor="start" dy=".4em" transform="translate(12,38)">
      Mean
     </text>
     <text text-anchor="end" dy=".4em" transform="translate(223,38)">
      3.247
     </text>
     <text text-anchor="start" dy=".4em" transform="translate(12,53)">
      Std Dev
     </text>
     <text text-anchor="end" dy=".4em" transform="translate(223,53)">
      2.337
     </text>
     <path d="M0,15h235" style="stroke: black; stroke-width: 1;"></path>
    </g>
    <g transform="translate(526,2)" font-family="Arial" font-size="17" space="preserve">
     <text fill="black" text-anchor="middle" dy=".4em" transform="translate(62,11)">
      Nation
     </text>
    </g>
   </g>
  </svg>
  <svg viewBox="0 0 1176 384" preserveAspectRatio="none" x="12" y="408" width="1176" height="384">
   <path d="M0,0H1176V384H0Z" style="fill: #deba87;"></path>
   <g>
    <g transform="translate(118,38)">
     <path d="M0,0H941V307H0Z" style="fill: #adbdc7; stroke: black; stroke-width: 1;"></path>
     <g>
      <path d="M0,0v307M72,0v307M145,0v307M217,0v307M290,0v307M362,0v307M434,0v307M507,0v307M579,0v307M651,0v307M724,0v307M796,0v307M869,0v307M941,0v307" style="stroke: black; stroke-width: 1; stroke-dasharray: 1,2;"></path>
      <path d="M0,307h941M0,252h941M0,197h941M0,142h941M0,87h941M0,32h941" style="stroke: black; stroke-width: 1; stroke-dasharray: 1,2;"></path>
     </g>
     <svg x="0" y="0" overflow="hidden" width="941" height="307" viewBox="0 0 941 307">
      <g>
       <path d="M7,63h32v244h-32zM79,86h33v221h-33zM152,85h32v222h-32zM224,85h33v222h-33zM297,15h32v292h-32zM369,81h32v226h-32zM441,255h33v52h-33zM514,270h32v37h-32zM586,297h32v10h-32zM658,166h33v141h-33zM731,214h32v93h-32zM803,249h33v58h-33zM876,281h32v26h-32z" style="fill: #946970;"></path>
       <path d="M7,63h6v244h-6zM79,86h7v221h-7zM152,85h6v222h-6zM224,85h7v222h-7zM297,15h6v292h-6zM369,81h6v226h-6zM441,255h7v52h-7zM514,270h6v37h-6zM586,297h6v10h-6zM658,166h7v141h-7zM731,214h6v93h-6zM803,249h7v58h-7zM876,281h6v26h-6z" style="fill: #b17d86;"></path>
       <path d="M39,63h-6v244h6zM112,86h-7v221h7zM184,85h-6v222h6zM257,85h-7v222h7zM329,15h-6v292h6zM401,81h-6v226h6zM474,255h-7v52h7zM546,270h-6v37h6zM618,297h-6v10h6zM691,166h-7v141h7zM763,214h-6v93h6zM836,249h-7v58h7zM908,281h-6v26h6z" style="fill: #7c585e;"></path>
      </g>
      <g>
       <path d="M40,199h29v108h-29zM112,220h29v87h-29zM185,141h29v166h-29zM257,212h29v95h-29zM330,136h29v171h-29zM402,196h29v111h-29zM474,272h29v35h-29zM547,292h29v15h-29zM619,304h29v3h-29zM691,268h29v39h-29zM764,244h29v63h-29zM836,282h29v25h-29zM909,300h29v7h-29z" style="fill: #d45954;"></path>
       <path d="M40,199h6v108h-6zM112,220h6v87h-6zM185,141h6v166h-6zM257,212h6v95h-6zM330,136h6v171h-6zM402,196h6v111h-6zM474,272h6v35h-6zM547,292h6v15h-6zM619,304h6v3h-6zM691,268h6v39h-6zM764,244h6v63h-6zM836,282h6v25h-6zM909,300h6v7h-6z" style="fill: #fd6a64;"></path>
       <path d="M69,199h-6v108h6zM141,220h-6v87h6zM214,141h-6v166h6zM286,212h-6v95h6zM359,136h-6v171h6zM431,196h-6v111h6zM503,272h-6v35h6zM576,292h-6v15h6zM648,304h-6v3h6zM720,268h-6v39h6zM793,244h-6v63h6zM865,282h-6v25h6zM938,300h-6v7h6z" style="fill: #b14a46;"></path>
      </g>
     </svg>
     <g>
      <g transform="translate(0,307)">
       <path d="M0,0h941M0,-12v12m72,-12v12m73,-12v12m72,-12v12m73,-12v12m72,-12v12m72,-12v12m73,-12v12m72,-12v12m72,-12v12m73,-12v12m72,-12v12m73,-12v12m72,-6v6" style="stroke: black; stroke-width: 1;"></path>
       <g font-family="Arial" font-size="13" space="preserve" fill="black" text-anchor="middle">
        <text dy=".8em" transform="translate(36,4)">
         PS
        </text>
        <text dy=".8em" transform="translate(109,4)">
         EP
        </text>
        <text dy=".8em" transform="translate(181,4)">
         ST
        </text>
        <text dy=".8em" transform="translate(254,4)">
         SPS
        </text>
        <text dy=".8em" transform="translate(326,4)">
         LEP
        </text>
        <text dy=".8em" transform="translate(398,4)">
         EF
        </text>
        <text dy=".8em" transform="translate(471,4)">
         FI
        </text>
        <text dy=".8em" transform="translate(543,4)">
         PE
        </text>
        <text dy=".8em" transform="translate(615,4)">
         DG
        </text>
        <text dy=".8em" transform="translate(688,4)">
         DD
        </text>
        <text dy=".8em" transform="translate(760,4)">
         TIS
        </text>
        <text dy=".8em" transform="translate(833,4)">
         AG
        </text>
        <text dy=".8em" transform="translate(905,4)">
         TH
        </text>
       </g>
      </g>
      <g>
       <path d="M0,0v307M35,307h-35m18,-11h-18m18,-11h-18m18,-11h-18m18,-11h-18m35,-11h-35m18,-11h-18m18,-11h-18m18,-11h-18m18,-11h-18m35,-11h-35m18,-11h-18m18,-11h-18m18,-11h-18m18,-11h-18m35,-11h-35m18,-11h-18m18,-11h-18m18,-11h-18m18,-11h-18m35,-11h-35m18,-11h-18m18,-11h-18m18,-11h-18m18,-11h-18m35,-11h-35m18,-11h-18m18,-11h-18" style="stroke: black; stroke-width: 1;"></path>
       <g font-family="Arial" font-size="13" space="preserve" fill="black" text-anchor="end">
        <text dy=".4em" transform="translate(-2,307)">
         0
        </text>
        <text dy=".4em" transform="translate(-2,252)">
         100
        </text>
        <text dy=".4em" transform="translate(-2,197)">
         200
        </text>
        <text dy=".4em" transform="translate(-2,142)">
         300
        </text>
        <text dy=".4em" transform="translate(-2,87)">
         400
        </text>
        <text dy=".4em" transform="translate(-2,32)">
         500
        </text>
       </g>
      </g>
     </g>
    </g>
    <g transform="translate(647,69)" font-family="Arial" font-size="25" space="preserve">
     <path d="M0,0H247V65H0Z" style="fill: white; stroke: black; stroke-width: 1;"></path>
     <path d="M7,5v24h48v-24z" style="fill: #946970; stroke: #000099; stroke-width: 1;"></path>
     <text fill="black" text-anchor="start" dy=".4em" transform="translate(62,17)">
      All nations
     </text>
     <path d="M7,36v24h48v-24z" style="fill: #d45954; stroke: #000099; stroke-width: 1;"></path>
     <text fill="black" text-anchor="start" dy=".4em" transform="translate(62,48)">
      French only
     </text>
    </g>
    <g transform="translate(513,2)" font-family="Arial" font-size="17" space="preserve">
     <text fill="black" text-anchor="middle" dy=".4em" transform="translate(75,11)">
      Division
     </text>
    </g>
   </g>
  </svg>
 </g>
</svg>

<svg xmlns="http://www.w3.org/2000/svg" viewBox="0 0 1200 800" preserveAspectRatio="none" width="1200" height="800">
 <path d="M0,0H1200V800H0Z" style="fill: #deba87;"></path>
 <g>
  <svg viewBox="0 0 1176 384" preserveAspectRatio="none" x="12" y="8" width="1176" height="384">
   <path d="M0,0H1176V384H0Z" style="fill: #deba87;"></path>
   <g>
    <g transform="translate(118,38)">
     <path d="M0,0H941V307H0Z" style="fill: #adbdc7; stroke: black; stroke-width: 1;"></path>
     <g>
      <path d="M0,307h941M0,287h941M0,266h941M0,246h941M0,225h941M0,205h941M0,184h941M0,164h941M0,143h941M0,123h941M0,102h941M0,82h941M0,61h941M0,41h941M0,20h941M0,0h941" style="stroke: black; stroke-width: 1; stroke-dasharray: 1,2;"></path>
      <path d="M35,0v307M85,0v307M120,0v307M148,0v307M170,0v307M189,0v307M206,0v307M220,0v307M233,0v307M318,0v307M368,0v307M403,0v307M431,0v307M453,0v307M472,0v307M488,0v307M503,0v307M516,0v307M601,0v307M651,0v307M686,0v307M714,0v307M736,0v307M755,0v307M771,0v307M786,0v307M799,0v307M884,0v307M934,0v307" style="stroke: black; stroke-width: 1; stroke-dasharray: 1,2;"></path>
     </g>
     <svg x="0" y="0" overflow="hidden" width="941" height="307" viewBox="0 0 941 307">
      <g>
       <path d="M0,307h628v-20h-628zM0,287h705v-21h-705zM0,266h863v-20h-863zM0,246h620v-21h-620zM0,225h491v-20h-491zM0,205h659v-21h-659zM0,184h426v-20h-426zM0,164h528v-21h-528zM0,143h318v-20h-318zM0,123h403v-21h-403zM0,102h372v-20h-372zM0,82h406v-21h-406zM0,61h265v-20h-265zM0,41h298v-21h-298zM0,20h85v-20h-85z" style="fill: #bf8278;"></path>
       <path d="M0,307h628v-4h-628zM0,287h705v-4h-705zM0,266h863v-4h-863zM0,246h620v-4h-620zM0,225h491v-4h-491zM0,205h659v-4h-659zM0,184h426v-4h-426zM0,164h528v-4h-528zM0,143h318v-4h-318zM0,123h403v-4h-403zM0,102h372v-4h-372zM0,82h406v-4h-406zM0,61h265v-4h-265zM0,41h298v-4h-298zM0,20h85v-4h-85z" style="fill: #e49b8f;"></path>
       <path d="M0,287h628v4h-628zM0,266h705v4h-705zM0,246h863v4h-863zM0,225h620v4h-620zM0,205h491v4h-491zM0,184h659v4h-659zM0,164h426v4h-426zM0,143h528v4h-528zM0,123h318v4h-318zM0,102h403v4h-403zM0,82h372v4h-372zM0,61h406v4h-406zM0,41h265v4h-265zM0,20h298v4h-298zM0,0h85v4h-85z" style="fill: #a06d64;"></path>
      </g>
     </svg>
     <g>
      <g transform="translate(0,307)">
       <path d="M0,0h941M35,-6V0M85,-6V0M120,-6V0M148,-6V0M170,-6V0M189,-6V0M206,-6V0M220,-6V0M233,-12V0M318,-6V0M368,-6V0M403,-6V0M431,-6V0M453,-6V0M472,-6V0M488,-6V0M503,-6V0M516,-12V0M601,-6V0M651,-6V0M686,-6V0M714,-6V0M736,-6V0M755,-6V0M771,-6V0M786,-6V0M799,-12V0M884,-6V0M934,-6V0" style="stroke: black; stroke-width: 1;"></path>
       <g font-family="Arial" font-size="13" space="preserve">
        <g transform="translate(224,17)">
         <text fill="black" font-size="13">
          10
         </text>
         <text fill="black" font-size="8" transform="translate(14,-6)">
          1
         </text>
        </g>
        <g transform="translate(507,17)">
         <text fill="black" font-size="13">
          10
         </text>
         <text fill="black" font-size="8" transform="translate(14,-6)">
          2
         </text>
        </g>
        <g transform="translate(790,17)">
         <text fill="black" font-size="13">
          10
         </text>
         <text fill="black" font-size="8" transform="translate(14,-6)">
          3
         </text>
        </g>
       </g>
      </g>
      <g>
       <path d="M0,0v307M35,307H0M35,287H0M35,266H0M35,246H0M35,225H0M35,205H0M35,184H0M35,164H0M35,143H0M35,123H0M35,102H0M35,82H0M35,61H0M35,41H0M35,20H0M18,0H0" style="stroke: black; stroke-width: 1;"></path>
       <g font-family="Arial" font-size="13" space="preserve" fill="black" text-anchor="end">
        <text dy=".4em" transform="translate(-2,297)">
         DE
        </text>
        <text dy=".4em" transform="translate(-2,277)">
         CH
        </text>
        <text dy=".4em" transform="translate(-2,256)">
         FR
        </text>
        <text dy=".4em" transform="translate(-2,236)">
         IT
        </text>
        <text dy=".4em" transform="translate(-2,215)">
         NL
        </text>
        <text dy=".4em" transform="translate(-2,195)">
         GB
        </text>
        <text dy=".4em" transform="translate(-2,174)">
         AT
        </text>
        <text dy=".4em" transform="translate(-2,154)">
         BE
        </text>
        <text dy=".4em" transform="translate(-2,133)">
         NO
        </text>
        <text dy=".4em" transform="translate(-2,113)">
         ES
        </text>
        <text dy=".4em" transform="translate(-2,92)">
         DK
        </text>
        <text dy=".4em" transform="translate(-2,72)">
         SE
        </text>
        <text dy=".4em" transform="translate(-2,51)">
         GR
        </text>
        <text dy=".4em" transform="translate(-2,31)">
         ZZ
        </text>
        <text dy=".4em" transform="translate(-2,10)">
         PT
        </text>
       </g>
       <g font-family="Arial" font-size="13" space="preserve" transform="translate(-66,0)">
        <text fill="black" text-anchor="end" dy=".4em" transform=" rotate(270)">
         Nation
        </text>
       </g>
      </g>
     </g>
    </g>
    <g transform="translate(917,25)" font-family="Arial" font-size="12" space="preserve" fill="black">
     <path d="M0,0H235V61H0Z" style="fill: white; stroke: black; stroke-width: 1;"></path>
     <text text-anchor="middle" dy=".4em" transform="translate(118,8)">
      htemp
     </text>
     <text text-anchor="start" dy=".4em" transform="translate(12,23)">
      Entries
     </text>
     <text text-anchor="end" dy=".4em" transform="translate(223,23)">
      3354
     </text>
     <text text-anchor="start" dy=".4em" transform="translate(12,38)">
      Mean
     </text>
     <text text-anchor="end" dy=".4em" transform="translate(223,38)">
      3.247
     </text>
     <text text-anchor="start" dy=".4em" transform="translate(12,53)">
      Std Dev
     </text>
     <text text-anchor="end" dy=".4em" transform="translate(223,53)">
      2.337
     </text>
     <path d="M0,15h235" style="stroke: black; stroke-width: 1;"></path>
    </g>
    <g transform="translate(526,2)" font-family="Arial" font-size="17" space="preserve">
     <text fill="black" text-anchor="middle" dy=".4em" transform="translate(62,11)">
      Nation
     </text>
    </g>
   </g>
  </svg>
  <svg viewBox="0 0 1176 384" preserveAspectRatio="none" x="12" y="408" width="1176" height="384">
   <path d="M0,0H1176V384H0Z" style="fill: #deba87;"></path>
   <g>
    <g transform="translate(118,38)">
     <path d="M0,0H941V307H0Z" style="fill: #adbdc7; stroke: black; stroke-width: 1;"></path>
     <g>
      <path d="M0,0v307M72,0v307M145,0v307M217,0v307M290,0v307M362,0v307M434,0v307M507,0v307M579,0v307M651,0v307M724,0v307M796,0v307M869,0v307M941,0v307" style="stroke: black; stroke-width: 1; stroke-dasharray: 1,2;"></path>
      <path d="M0,307h941M0,252h941M0,197h941M0,142h941M0,87h941M0,32h941" style="stroke: black; stroke-width: 1; stroke-dasharray: 1,2;"></path>
     </g>
     <svg x="0" y="0" overflow="hidden" width="941" height="307" viewBox="0 0 941 307">
      <g>
       <path d="M7,63h32v244h-32zM79,86h33v221h-33zM152,85h32v222h-32zM224,85h33v222h-33zM297,15h32v292h-32zM369,81h32v226h-32zM441,255h33v52h-33zM514,270h32v37h-32zM586,297h32v10h-32zM658,166h33v141h-33zM731,214h32v93h-32zM803,249h33v58h-33zM876,281h32v26h-32z" style="fill: #946970;"></path>
       <path d="M7,63h6v244h-6zM79,86h7v221h-7zM152,85h6v222h-6zM224,85h7v222h-7zM297,15h6v292h-6zM369,81h6v226h-6zM441,255h7v52h-7zM514,270h6v37h-6zM586,297h6v10h-6zM658,166h7v141h-7zM731,214h6v93h-6zM803,249h7v58h-7zM876,281h6v26h-6z" style="fill: #b17d86;"></path>
       <path d="M39,63h-6v244h6zM112,86h-7v221h7zM184,85h-6v222h6zM257,85h-7v222h7zM329,15h-6v292h6zM401,81h-6v226h6zM474,255h-7v52h7zM546,270h-6v37h6zM618,297h-6v10h6zM691,166h-7v141h7zM763,214h-6v93h6zM836,249h-7v58h7zM908,281h-6v26h6z" style="fill: #7c585e;"></path>
      </g>
      <g>
       <path d="M40,199h29v108h-29zM112,220h29v87h-29zM185,141h29v166h-29zM257,212h29v95h-29zM330,136h29v171h-29zM402,196h29v111h-29zM474,272h29v35h-29zM547,292h29v15h-29zM619,304h29v3h-29zM691,268h29v39h-29zM764,244h29v63h-29zM836,282h29v25h-29zM909,300h29v7h-29z" style="fill: #d45954;"></path>
       <path d="M40,199h6v108h-6zM112,220h6v87h-6zM185,141h6v166h-6zM257,212h6v95h-6zM330,136h6v171h-6zM402,196h6v111h-6zM474,272h6v35h-6zM547,292h6v15h-6zM619,304h6v3h-6zM691,268h6v39h-6zM764,244h6v63h-6zM836,282h6v25h-6zM909,300h6v7h-6z" style="fill: #fd6a64;"></path>
       <path d="M69,199h-6v108h6zM141,220h-6v87h6zM214,141h-6v166h6zM286,212h-6v95h6zM359,136h-6v171h6zM431,196h-6v111h6zM503,272h-6v35h6zM576,292h-6v15h6zM648,304h-6v3h6zM720,268h-6v39h6zM793,244h-6v63h6zM865,282h-6v25h6zM938,300h-6v7h6z" style="fill: #b14a46;"></path>
      </g>
     </svg>
     <g>
      <g transform="translate(0,307)">
       <path d="M0,0h941M0,-12V0M72,-12V0M145,-12V0M217,-12V0M290,-12V0M362,-12V0M434,-12V0M507,-12V0M579,-12V0M651,-12V0M724,-12V0M796,-12V0M869,-12V0M941,-6V0" style="stroke: black; stroke-width: 1;"></path>
       <g font-family="Arial" font-size="13" space="preserve" fill="black" text-anchor="middle">
        <text dy=".8em" transform="translate(36,4)">
         PS
        </text>
        <text dy=".8em" transform="translate(109,4)">
         EP
        </text>
        <text dy=".8em" transform="translate(181,4)">
         ST
        </text>
        <text dy=".8em" transform="translate(254,4)">
         SPS
        </text>
        <text dy=".8em" transform="translate(326,4)">
         LEP
        </text>
        <text dy=".8em" transform="translate(398,4)">
         EF
        </text>
        <text dy=".8em" transform="translate(471,4)">
         FI
        </text>
        <text dy=".8em" transform="translate(543,4)">
         PE
        </text>
        <text dy=".8em" transform="translate(615,4)">
         DG
        </text>
        <text dy=".8em" transform="translate(688,4)">
         DD
        </text>
        <text dy=".8em" transform="translate(760,4)">
         TIS
        </text>
        <text dy=".8em" transform="translate(833,4)">
         AG
        </text>
        <text dy=".8em" transform="translate(905,4)">
         TH
        </text>
       </g>
      </g>
      <g>
       <path d="M0,0v307M35,307H0M18,296H0M18,285H0M18,274H0M18,263H0M35,252H0M18,241H0M18,230H0M18,219H0M18,208H0M35,197H0M18,186H0M18,175H0M18,164H0M18,153H0M35,142H0M18,131H0M18,120H0M18,109H0M18,98H0M35,87H0M18,76H0M18,65H0M18,54H0M18,43H0M35,32H0M18,21H0M18,10H0" style="stroke: black; stroke-width: 1;"></path>
       <g font-family="Arial" font-size="13" space="preserve" fill="black" text-anchor="end">
        <text dy=".4em" transform="translate(-2,307)">
         0
        </text>
        <text dy=".4em" transform="translate(-2,252)">
         100
        </text>
        <text dy=".4em" transform="translate(-2,197)">
         200
        </text>
        <text dy=".4em" transform="translate(-2,142)">
         300
        </text>
        <text dy=".4em" transform="translate(-2,87)">
         400
        </text>
        <text dy=".4em" transform="translate(-2,32)">
         500
        </text>
       </g>
      </g>
     </g>
    </g>
    <g transform="translate(647,69)" font-family="Arial" font-size="25" space="preserve">
     <path d="M0,0H247V65H0Z" style="fill: white; stroke: black; stroke-width: 1;"></path>
     <path d="M7,5v24h48v-24z" style="fill: #946970; stroke: #000099; stroke-width: 1;"></path>
     <text fill="black" text-anchor="start" dy=".4em" transform="translate(62,17)">
      All nations
     </text>
     <path d="M7,36v24h48v-24z" style="fill: #d45954; stroke: #000099; stroke-width: 1;"></path>
     <text fill="black" text-anchor="start" dy=".4em" transform="translate(62,48)">
      French only
     </text>
    </g>
    <g transform="translate(513,2)" font-family="Arial" font-size="17" space="preserve">
     <text fill="black" text-anchor="middle" dy=".4em" transform="translate(75,11)">
      Division
     </text>
    </g>
   </g>
  </svg>
 </g>
</svg>
